packages/ui-icons/svg/Line/refresh.svg

<svg viewBox="0 0 1920 1920" version="1.1" xmlns="http://www.w3.org/2000/svg">
    <path d="M960,0 L960,112.941176 C1427.12471,112.941176 1807.05882,492.875294 1807.05882,960 C1807.05882,1427.12471 1427.12471,1807.05882 960,1807.05882 C492.875294,1807.05882 112.941176,1427.12471 112.941176,960 C112.941176,692.894118 239.548235,444.084706 451.764706,284.272941 L451.764706,677.647059 L564.705882,677.647059 L564.705882,112.941176 L0,112.941176 L0,225.882353 L342.889412,225.882353 C127.058824,407.378824 0,674.710588 0,960 C0,1489.35529 430.644706,1920 960,1920 C1489.35529,1920 1920,1489.35529 1920,960 C1920,430.644706 1489.35529,0 960,0" stroke="none" stroke-width="1" fill-rule="evenodd"/>
</svg>

<svg viewBox="0 0 1920 1920" version="1.1" xmlns="http://www.w3.org/2000/svg">
    <path d="M960 0v112.941c467.125 0 847.059 379.934 847.059 847.059 0 467.125-379.934 847.059-847.059 847.059-467.125 0-847.059-379.934-847.059-847.059 0-267.106 126.607-515.915 338.824-675.727v393.374h112.94V112.941H0v112.941h342.89C127.058 407.38 0 674.711 0 960c0 529.355 430.645 960 960 960s960-430.645 960-960S1489.355 0 960 0" stroke="none" stroke-width="1" fill-rule="evenodd"/>
</svg>
